X: 10551
T: HASTE TO THE WEDDING
C:
%R: jig
B: Elias Howe "The Musician's Companion" Part 1 1842 p.55 #1
S: http://imslp.org/wiki/The_Musician's_Companion_(Howe,_Elias)
Z: 2015 John Chambers <jc:trillian.mit.edu>
M: 6/8
L: 1/8
K: D
% - - - - - - - - - - - - - - - - - - - - - - - - -
V: 1 staves=3
  A |\
AFG Agf | ede fdB | AFA AdF | EFE EFG |\
AFG Agf | ede fdB | AFA faf | d2d d2 :|
|: (f/g/) |\
afg afa | gbg bag | fga agf | eee efg |\
a3  f3  | ede fdB | AFA faf | ddd d2 :|
% - - - - - - - - - - - - - - - - - - - - - - - - -
V: 2
  F |\
FDF FED | CB,C DFG | FDF F2D | CDC CDE |\
FDE FED | CB,C DFG | FDF FAF | D2D D2 :|
|: (d/e/) |\
fde fdf | gBg gdB | def fed | ccc cde |\
f3  d3  | cBc dFG | FDF FAF | DDD D2 :|
% - - - - - - - - - - - - - - - - - - - - - - - - -
V: 3 clef=bass middle=d
  d |\
d2d d2d | A2A d2d | d2d d2f | a2a a2z |\
d2d d2d | A2A d2d | d2d faf | d2d d2 :|
|: d |\
d2d d2d | d2d d2d | d2d d2d | aaa a/g/fe |\
d3  d3  | a2a d2d | d2d faf | ddd d2 :|
% - - - - - - - - - - - - - - - - - - - - - - - - -
